X:139
T:Connemara Stocking, The
T:Galway Reel, The
T:Winter Apples
R:reel
D:Chieftains 1.
Z:id:hn-reel-139
M:C|
K:G
g2fg edBA | GABG AGED | GABd eaag |1 fdef gbaf :|2 fdef gdef ||
gbef gbe2 | fade fad2 | gbef gfed | Bded Bded |
ebba b2ag | faab ~a3f | gbag fagf | edef gdef ||
P:variations
|: g2fg edBA | G2BG AGEF | GABd eaag |1 fdef gaba :|2 fdef g2ef ||
gbef gbeg | fade fadf | gbef gfeg | fedf ~e3d |
ebba b2ag | faaf afdf | gbag fagf | edef gfef ||

